X: 1
T: Aires De Pontevedra
R: reel
M: 4/4
L: 1/8
K: Amix
e | a2 e2 c2 de | fedc B3 c | dedc B2 cd | edcB A2 e2 |
a2 e2 c2 de | fedc B3 c | dcde fecA | edBG A4 |
M:2/4| A2 :|
Bc | dcdB cABc | dcdB cABc | ecdB cABc | dGBd cAce |g4 gfge |
agfe dcde | Addc dcde | agfe dcde |c2 cB cBce | agfe dcde |
M:2/4 B4 | cecA cecA | BdBG B2 e2 | A4 :|


Tune 4587	Setting 22325

